!!!!SEGMENT: pl-kozmzk--mzk-m-346--044_walczynski-franciszek--cantantibus-organis-allegro.krn
!!!cenid: 18xx:2839
!!!COM: Walczyński, Franciszek
!!!COM-rism: pe30021989
!!!CDT: ~1852-1937
!!!CNT: Polish
!!!OTL: Cantantibus organis – Allegro
!!!PDT: 1898
!!!AGN: Secular
!!!SMS-siglum: PL-KOZmzk
!!!SMS-shelfmark: mzk/m/346
!!!NIFC-rismID: 1001109608
!!!URL-scan: https://repozytorium.nifc.pl/islandora/object/pl-kozmzk%3A7453/datastream/PDF/view
!!!ONB-nifc:
!!!SMS-variant:
!!!SMS-altvar:
!!!OMD: Allegro.
**kern	**kern	**dynam
*part1	*part1	*part1
*staff2	*staff1	*
*	*I"44.	*
*clefF4	*clefG2	*
*k[b-e-]	*k[b-e-]	*
*M3/4	*M3/4	*
=1	=1	=1
*^	*^	*
!	!LO:TX:b:i:t=Ped.	!	!	!
(2.B-/	[2.G\	(4dd/	[2.d\	f
.	.	8b-/L	.	.
.	.	8a/J	.	.
.	.	4g/	.	.
=2	=2	=2	=2	=2
4c/	2.G\]	2.a/)	2.d\]	.
8A/L	.	.	.	.
8B-/J	.	.	.	.
4c/)	.	.	.	.
=3	=3	=3	=3	=3
!	!	!	!	!LO:DY:a
(2.B-/	[2.G\	(4dd/	(2.d\	pp
.	.	8b-/L	.	.
.	.	8a/J	.	.
.	.	4g/	.	.
=4	=4	=4	=4	=4
4c/	2.G\]	2.a/)	2.e-\)	.
8A/L	.	.	.	.
8B-/J	.	.	.	.
4c/)	.	.	.	.
=5	=5	=5	=5	=5
!	!	!	!	!LO:DY:a:t=pf
2B-/	(4G\	(2g/	4d\	fp
.	4E-\	.	2e-\	.
4A/	4F\	4f/	.	.
=6	=6	=6	=6	=6
(4B-/	2.BB-\	2f/	([2.d\	.
8A/L	.	.	.	.
8G/J	.	.	.	.
4F/	.	4b-/	.	.
=7	=7	=7	=7	=7
!	!	!	!	!LO:DY:a
4A-X/	4BBn\	4f/	4d\]	pp
[2G/	2C\	2e-/	4c\	.
!	!	!	!	!LO:HP:a
.	.	.	4B-\	>
=8	=8	=8	=8	=8
4G/]	2.D\)	2.d/)	2.A\)	.
8F#X/L	.	.	.	.
8En/J	.	.	.	.
4F#/)	.	.	.	]]
=9	=9	=9	=9	=9
!	!	!	!	!LO:DY:t=pf
(2.B-/	[2.GG\	(4dd/	[2.d\	fp
.	.	8b-/L	.	.
.	.	8a/J	.	.
.	.	4g/	.	.
=10	=10	=10	=10	=10
4c/	2.GG\_	2.a/	2.d\_	.
8A/L	.	.	.	.
8B-/J	.	.	.	.
4c/	.	.	.	.
=11	=11	=11	=11	=11
!	!	!	!	!LO:DY:a
2.B-/	2.GG\_	4dd/	(2.d\]	pp
.	.	8b-/L	.	.
.	.	8a/J	.	.
.	.	4g/	.	.
!!LO:PB:g=original
=12	=12	=12	=12	=12
4c/	2.GG\]	2.a/)	2.e-\)	.
8A/L	.	.	.	.
8B-/J	.	.	.	.
4c/)	.	.	.	.
=13	=13	=13	=13	=13
(2B-/	(4G\	(2g/	4d\	f
.	4E-\	.	2e-\	.
4A/	4F\	4f/	.	.
=14	=14	=14	=14	=14
4B-/	2.BB-\	2f/	[2.d\	.
8A/L	.	.	.	.
8G/J	.	.	.	.
4F/	.	4b-/	.	.
=15	=15	=15	=15	=15
4G/	8BBn\L	8f/L	8d\L]	p
.	8C\J	8e-/J	8c\J	.
!	!	!	!	!LO:HP:a
[2F/	4F\	4d/	4.B-\	>
.	4FF\	4c/	.	.
.	.	.	8A\	.
=16	=16	=16	=16	=16
2.F/])	2.BB-;\)	2.d;/)	2.B-\	]
=17	=17	=17	=17	=17
*	*	*	*	*^
!	!	!	!	!	!LO:DY:b=2
4D/	4D\	4d/	4d\	f	f
!	!	!	!	!LO:HP:a	!
8F#X/L	8F#\L	8f#X/L	8f#\L	<	.
8G/J	8G\J	8g/J	8g\J	.	.
4A/	4A\	4a/	4a\	[	.
*	*	*	*	*v	*v
=18	=18	=18	=18	=18
!	!	!	!	!LO:HP:a
2ryy	2D\	2d/	2d\	>
!	!	!	!	!LO:DY:rj
4d/	4r	4r	4ryy	] pp
*v	*v	*	*	*
=19	=19	=19	=19
*	*	*^	*
2.r	(4aa/	(4cc\	2.dd/	.
.	4gg/	4b-\	.	.
.	4bb-/	4g\	.	.
*	*	*v	*v	*
=20	=20	=20	=20
2.r	2.aa/)	2.ff#X 2.dd\)	.
=21	=21	=21	=21
*^	*	*	*
4D/	4D\	4d/	4d\	ff
8F#X/L	8F#\L	8f#X/L	8f#\L	.
8G/J	8G\J	8g/J	8g\J	.
4A/	4A\	4a/	4a\	.
=22	=22	=22	=22	=22
2D/	2D\	2d/	2d\	.
!	!	!	!	!LO:DY:b=2:rj
4r	(4C\	4r	4ryy	p
=23	=23	=23	=23	=23
!	!	!	!	!LO:DY:a
4r	4BB-\	(4g/	4d\	p
[2d/	4AA\	4a/	4f#X\	.
.	4GG\	4b-/	4g\	.
!!LO:LB:g=original
=24	=24	=24	=24	=24
2.d/]	2.D;\)	2.a;/)	2.f#X\	.
=25	=25	=25	=25	=25
(2.B-/	[2.GG\	(4dd/	([2.d\	pp
.	.	8b-/L	.	.
.	.	8a/J	.	.
.	.	4g/	.	.
=26	=26	=26	=26	=26
4c/	2.GG\_	2.a/	2.d\_	.
8A/L	.	.	.	.
8B-/J	.	.	.	.
4c/	.	.	.	.
=27	=27	=27	=27	=27
2.B-/	2.GG\_	4dd/	2.d\]	.
.	.	8b-/L	.	.
.	.	8a/J	.	.
.	.	4g/	.	.
=28	=28	=28	=28	=28
2.c/	2.GG\]	4a/	2.e-\	.
.	.	8f#X/L	.	.
.	.	8g/J	.	.
.	.	4a/)	.	.
=29	=29	=29	=29	=29
2.B-/)	2.GG\	(4dd/	2.d\)	.
.	.	8b-/L	.	.
.	.	8a/J	.	.
.	.	4g/	.	.
=30	=30	=30	=30	=30
4.c/	4.C;\	4.ee-;/)	4.g 4.e-\	f
8G^/L	8G\L	8g^/L	8g\L	.
8A^/	8A\	8a^/	8a\	.
8B-^/J	8B-\J	8b-^/J	8b-\J	.
=31	=31	=31	=31	=31
4.d/	4.d\	4.dd^/	4.dd\	.
8c/L	8c\L	8cc/L	8cc\L	.
8B-/	8B-\	8b-/	8b-\	.
8c/J	8c\J	8cc/J	8cc\J	.
=32	=32	=32	=32	=32
8B-/L	8B-\L	8b-/L	8b-\L	.
8A/	8A\	8a/	8a\	.
8G/	8G\	8g/	8g\	.
8F/	8F\	8f/	8f\	.
8E-/	8E-\	8e-/	8e-\	.
8D/J	8D\J	8d/J	8d\J	.
=33	=33	=33	=33	=33
!	!	!	!	!LO:HP:a
8C/L	8C\L	8c/L	8c\L	p >
8BB-/J	8BB-\J	8B-/J	8B-\J	.
4AA/	4AA\	4A/	4A\	.
4D/	4D\	4d/	4d\	.
=34	=34	=34	=34	=34
2GG/	[2.GG\	2G/	2G\	]
4r	.	4ryy	4r	.
=35	=35	=35	=35	=35
[2.G/	2.GG\_	(4ee-/	4b- 4g\	p
.	.	4.dd/	2a-X 2f\	.
.	.	8bn/	.	.
!!LO:LB:g=original
=36	=36	=36	=36	=36
2.G/_	2.GG\]	2dd/	2.g 2.e-\	.
.	.	4cc/	.	.
=37	=37	=37	=37	=37
2.G/_	[2.GG\	4b-/	4g 4d\	.
.	.	4.b-^/	2f#X 2c\	>
.	.	8a/	.	.
=38	=38	=38	=38	=38
2.G/]	2.GG\]	2.g/)	2.d 2.B-\	]
*	*	*v	*v	*
=39	=39	=39	=39
(4B- 4G/	[2.GG\	4e-/	pp
2A-X 2F/	.	(4.d^>/	.
.	.	8Bn/	.
=40	=40	=40	=40
[2.G 2.E-/	2.GG\_	2d/	.
.	.	4c/	.
=41	=41	=41	=41
4G] 4D/	2.GG\]	4B-/	.
2F#X 2C/	.	4.B-^>/	.
.	.	8A/	.
=42	=42	=42	=42
4D 4BB-/)	4GG\	4G/)	.
!	!	!	!LO:DY:b=2:rj
4r	(4CC#X\	4r	pp
4r	4DD\	4r	.
=43	=43	=43	=43
*	*	*^	*
2.rA	2BB-\	2.rg	2.r	.
.	4AA\	.	.	.
*	*	*v	*v	*
=44	=44	=44	=44
4GG/	4GG\)	4g 4d 4B-/	.
4r	2ryy	(>4c#X/	pp
4r	.	4d/	.
=45	=45	=45	=45
*	*	*^	*
2.rC	2.r	2b-/	2.r	>
.	.	4a/	.	]]
*v	*v	*	*	*
=46	=46	=46	=46
!LO:TX:b:i:t=Ped.	!	!	!LO:HP:a
(4D\	2.a 2.f#X/)	2.c\	pp <
4E-\	.	.	.
4D\	.	.	[[
=47	=47	=47	=47
!LO:TX:b:i:t=rit.	!	!	!
4G\	[2.g [<2.d/	[2.B-\	>
4D\	.	.	.
8BB-/L	.	.	.
8AA/J	.	.	.
=48	=48	=48	=48
2.GG;</)	2.g] 2.d;/]	2.B-\]	]]
*	*v	*v	*
==	==	==
*-	*-	*-
!!!system-decoration: {(s1,s2)}
!!!RDF**kern: > = above
!!!RDF**kern: < = below
!!!ENC: Andrzej Kubiczek
!!!END: 2021-07-28
!!!ENC: Anastazja Marusiak
!!!END: 2021-07-28
